packages/kaspersky-hexa-ui-icons/src/iconsSVGs/32/StatusWarningSolid.svg

<svg width="32" height="32" viewBox="0 0 32 32" fill="none" xmlns="http://www.w3.org/2000/svg">
<path fill-rule="evenodd" clip-rule="evenodd" d="M19.4379 6.02106C17.9099 3.32632 14.0901 3.32631 12.5621 6.02105L3.53776 21.9368C2.00982 24.6316 3.91974 28 6.97561 28H25.0244C28.0803 28 29.9902 24.6316 28.4622 21.9368L19.4379 6.02106ZM16 11C16.5523 11 17 11.4477 17 12V18C17 18.5523 16.5523 19 16 19C15.4477 19 15 18.5523 15 18V12C15 11.4477 15.4477 11 16 11ZM17 22C17 22.5523 16.5523 23 16 23C15.4477 23 15 22.5523 15 22C15 21.4477 15.4477 21 16 21C16.5523 21 17 21.4477 17 22Z" fill="black"/>
</svg>

<svg xmlns="http://www.w3.org/2000/svg" width="32" height="32" fill="none" viewBox="0 0 32 32"><path fill="#000" fill-rule="evenodd" d="M19.4379 6.021c-1.528-2.6947-5.3478-2.6947-6.8758 0L3.5378 21.9369C2.0098 24.6316 3.9198 28 6.9756 28h18.0488c3.0559 0 4.9658-3.3684 3.4378-6.0632zM16 11c.5523 0 1 .4477 1 1v6c0 .5523-.4477 1-1 1s-1-.4477-1-1v-6c0-.5523.4477-1 1-1m1 11c0 .5523-.4477 1-1 1s-1-.4477-1-1 .4477-1 1-1 1 .4477 1 1"/></svg>
